X:2104
T:An' Thou Wert My Only Dear
P:An' Thou Wert My Only Dear
C:Traditional
R:Jig (8x48)
B:RSCDS 21-4
Z:Anselm Lingnau <anselm@strathspey.org>
M:6/8
L:1/8
K:Gm
"Gm"GDG BGB|dBd g3|d2e dcB|"D7"ABG ^F=ED|
"Gm"GDG BGB|dBd g3|d2e dcB|"D7"AG^F "Gm"[G3B,3]||
"Gm"gfg efg|"Cm"abg "D7"^fed|"Cm"efg "Gm"dcB|"D"ABG ^FED|
"Gm"gfg "Cm"efg|abg "D"^fed|"Cm"cea "Gm/Bb"Bdg|"D"AG^F "Gm"[G3B,3]:|
